X: 35220
T: Rosaleen's Children
R: jig
M: 6/8
K: Edorian
|:B,2E GFE|GAB dcB|B,2E GFE|F3 DB,A,|
B,EE GFE|GAB dcB|e=f^f edB|1 AFD E2D:|2 AFD E2G||
|:B2e dBA|Bee dBA|Bee def|afg e2d|
B2e dBA|Bee def|gfe fed|1 BAF E2G:|2 BAF E2D||

